dist/svgs/unicons/line/border-left.svg

<svg xmlns="http://www.w3.org/2000/svg" viewBox="0 0 24 24"><path d="M11.5 19a1 1 0 101 1 1 1 0 00-1-1zm0-4a1 1 0 101 1 1 1 0 00-1-1zm0-4a1 1 0 101 1 1 1 0 00-1-1zm-8-8a1 1 0 00-1 1v16a1 1 0 002 0V4a1 1 0 00-1-1zm16 2a1 1 0 10-1-1 1 1 0 001 1zm-8 2a1 1 0 101 1 1 1 0 00-1-1zm-4 4a1 1 0 101 1 1 1 0 00-1-1zm0 8a1 1 0 101 1 1 1 0 00-1-1zm0-16a1 1 0 101 1 1 1 0 00-1-1zm12 8a1 1 0 101 1 1 1 0 00-1-1zm0 4a1 1 0 101 1 1 1 0 00-1-1zm-8-12a1 1 0 101 1 1 1 0 00-1-1zm8 16a1 1 0 101 1 1 1 0 00-1-1zm0-12a1 1 0 101 1 1 1 0 00-1-1zm-4-4a1 1 0 101 1 1 1 0 00-1-1zm0 16a1 1 0 101 1 1 1 0 00-1-1zm0-8a1 1 0 101 1 1 1 0 00-1-1z"/></svg>

<svg xmlns="http://www.w3.org/2000/svg" viewBox="0 0 24 24"><path d="M11.5,19a1,1,0,1,0,1,1A1,1,0,0,0,11.5,19Zm0-4a1,1,0,1,0,1,1A1,1,0,0,0,11.5,15Zm0-4a1,1,0,1,0,1,1A1,1,0,0,0,11.5,11Zm-8-8a1,1,0,0,0-1,1V20a1,1,0,0,0,2,0V4A1,1,0,0,0,3.5,3Zm16,2a1,1,0,1,0-1-1A1,1,0,0,0,19.5,5Zm-8,2a1,1,0,1,0,1,1A1,1,0,0,0,11.5,7Zm-4,4a1,1,0,1,0,1,1A1,1,0,0,0,7.5,11Zm0,8a1,1,0,1,0,1,1A1,1,0,0,0,7.5,19Zm0-16a1,1,0,1,0,1,1A1,1,0,0,0,7.5,3Zm12,8a1,1,0,1,0,1,1A1,1,0,0,0,19.5,11Zm0,4a1,1,0,1,0,1,1A1,1,0,0,0,19.5,15Zm-8-12a1,1,0,1,0,1,1A1,1,0,0,0,11.5,3Zm8,16a1,1,0,1,0,1,1A1,1,0,0,0,19.5,19Zm0-12a1,1,0,1,0,1,1A1,1,0,0,0,19.5,7Zm-4-4a1,1,0,1,0,1,1A1,1,0,0,0,15.5,3Zm0,16a1,1,0,1,0,1,1A1,1,0,0,0,15.5,19Zm0-8a1,1,0,1,0,1,1A1,1,0,0,0,15.5,11Z"/></svg>
